svg/flood.svg

<svg width="24" height="24" viewBox="0 0 24 24"  xmlns="http://www.w3.org/2000/svg">
<path d="M2 16.7199V14.5833L2.01538 14.5769C2.67045 14.304 3.41099 14 4.8 14C6.18901 14 6.92955 14.304 7.58462 14.5769L7.60201 14.5842C8.13941 14.8081 8.59978 15 9.6 15C10.6002 15 11.0606 14.8081 11.598 14.5842L11.6154 14.5769C12.2705 14.304 13.011 14 14.4 14C15.789 14 16.5295 14.304 17.1846 14.5769L17.202 14.5842C17.7394 14.8081 18.1998 15 19.2 15C20.2002 15 20.6606 14.8081 21.198 14.5842L21.2154 14.5769C21.4561 14.4766 21.7083 14.3722 22 14.2801V16.4167L21.9846 16.4231C21.3295 16.696 20.589 17 19.2 17C17.811 17 17.0705 16.696 16.4154 16.4231L16.398 16.4158C15.8606 16.1919 15.4002 16 14.4 16C13.3998 16 12.9394 16.1919 12.402 16.4158L12.3846 16.4231C11.7295 16.696 10.989 17 9.6 17C8.21099 17 7.47045 16.696 6.81538 16.4231L6.79799 16.4158C6.26059 16.1919 5.80022 16 4.8 16C3.79978 16 3.33941 16.1919 2.80201 16.4158L2.78462 16.4231C2.54393 16.5234 2.2917 16.6278 2 16.7199Z" />
<path d="M2 20.7199V18.5833L2.01538 18.5769C2.67045 18.304 3.41099 18 4.8 18C6.18901 18 6.92955 18.304 7.58462 18.5769L7.60201 18.5842C8.13941 18.8081 8.59978 19 9.6 19C10.6002 19 11.0606 18.8081 11.598 18.5842L11.6154 18.5769C12.2705 18.304 13.011 18 14.4 18C15.789 18 16.5295 18.304 17.1846 18.5769L17.202 18.5842C17.7394 18.8081 18.1998 19 19.2 19C20.2002 19 20.6606 18.8081 21.198 18.5842L21.2154 18.5769C21.4561 18.4766 21.7083 18.3722 22 18.2801V20.4167L21.9846 20.4231C21.3296 20.696 20.5891 21 19.2001 21V21C17.8111 21 17.0705 20.696 16.4154 20.4231L16.398 20.4158C15.8606 20.1919 15.4002 20 14.4 20C13.3998 20 12.9394 20.1919 12.402 20.4158L12.3846 20.4231C11.7295 20.696 10.989 21 9.6 21C8.21099 21 7.47045 20.696 6.81538 20.4231L6.79799 20.4158C6.26059 20.1919 5.80022 20 4.8 20C3.79978 20 3.33941 20.1919 2.80201 20.4158L2.78462 20.4231C2.54393 20.5234 2.2917 20.6278 2 20.7199Z" />
<path fill-rule="evenodd" clip-rule="evenodd" d="M6 7C6 5.89543 6.89543 5 8 5H16C17.1046 5 18 5.89543 18 7V12.8249C17.8709 12.7797 17.7451 12.7272 17.6065 12.6694L17.5692 12.6538C16.8591 12.358 15.978 12 14.4 12C12.822 12 11.9409 12.358 11.2308 12.6538L11.1935 12.6694C10.7242 12.8651 10.4009 13 9.6 13C8.79905 13 8.47575 12.8651 8.00652 12.6694L7.96923 12.6538C7.46312 12.443 6.87018 12.2006 6 12.0787V7ZM15 9C15.5523 9 16 8.55228 16 8C16 7.44772 15.5523 7 15 7C14.4477 7 14 7.44772 14 8C14 8.55228 14.4477 9 15 9Z" />
</svg>

<svg width="24" height="24" viewBox="0 0 24 24" xmlns="http://www.w3.org/2000/svg"><path d="M2 16.72v-2.137l.015-.006C2.67 14.304 3.411 14 4.8 14c1.389 0 2.13.304 2.785.577l.017.007c.537.224.998.416 1.998.416s1.46-.192 1.998-.416l.017-.007C12.27 14.304 13.011 14 14.4 14c1.389 0 2.13.304 2.785.577l.017.007c.537.224.998.416 1.998.416s1.46-.192 1.998-.416l.017-.007c.241-.1.493-.205.785-.297v2.137l-.015.006c-.655.273-1.396.577-2.785.577-1.389 0-2.13-.304-2.785-.577l-.017-.007C15.861 16.192 15.4 16 14.4 16s-1.46.192-1.998.416l-.017.007c-.655.273-1.396.577-2.785.577-1.389 0-2.13-.304-2.785-.577l-.017-.007C6.261 16.192 5.8 16 4.8 16s-1.46.192-1.998.416l-.017.007c-.241.1-.493.205-.785.297zM2 20.72v-2.137l.015-.006C2.67 18.304 3.411 18 4.8 18c1.389 0 2.13.304 2.785.577l.017.007c.537.224.998.416 1.998.416s1.46-.192 1.998-.416l.017-.007C12.27 18.304 13.011 18 14.4 18c1.389 0 2.13.304 2.785.577l.017.007c.537.224.998.416 1.998.416s1.46-.192 1.998-.416l.017-.007c.241-.1.493-.205.785-.297v2.137l-.015.006c-.655.273-1.396.577-2.785.577-1.389 0-2.13-.304-2.785-.577l-.017-.007C15.861 20.192 15.4 20 14.4 20s-1.46.192-1.998.416l-.017.007c-.655.273-1.396.577-2.785.577-1.389 0-2.13-.304-2.785-.577l-.017-.007C6.261 20.192 5.8 20 4.8 20s-1.46.192-1.998.416l-.017.007c-.241.1-.493.205-.785.297z"/><path fill-rule="evenodd" clip-rule="evenodd" d="M6 7a2 2 0 0 1 2-2h8a2 2 0 0 1 2 2v5.825c-.13-.045-.255-.098-.393-.156l-.038-.015C16.86 12.358 15.978 12 14.4 12s-2.46.358-3.17.654l-.037.015c-.469.196-.792.331-1.593.331-.801 0-1.124-.135-1.593-.33l-.038-.016C7.463 12.443 6.87 12.2 6 12.079V7zm9 2a1 1 0 1 0 0-2 1 1 0 0 0 0 2z"/></svg>
